X: 35
T: Daqingshan gao
%%abc-version 2.0
%%abcx-abcm2ps-target-version 5.9.1 (29 Sep 2008)
%%abc-creator hum2abc beta
%%abcx-conversion-date 2013/10/02 07:52:29
%%abc-edited-by Helmut Schaffrath
%%humdrum-veritas 797377229
%%humdrum-veritas-data 2409924070
%%continueall 1
%%barnumbers 0
L: 1/8
M: 2/4
K: Bb
g> g f d [I:setbarnb 1]| 
b> c' d'/ f'/ d' | 
c'> b g d'/ f/ | 
d4 | 
b> c' d' f' | 
g f' g/ f/ d | 
B> c d/ f/ d | 
G4 |]  



